X: 36
T: Kitchen Girl
N:Chords added by J. Evans (yes, the major E chord is intentional!).
F:Found in http://www.ars-nova.com/swusermanual/abc.htm 2007-9-10
N:Note the incorrect keys [fixed by JC].
C:Trad.
L:1/8
K:Amix
|:\
"n.c."[c4a4] [B4g4] | "A"efed c2cd | e2f2 "G"gaba | "E"g2e2 e2fg |\
"n.c."[c4a4] [B4g4] | "A"efed cdef | "G"g2d2 efed | "A"c2A2 A4 :|
K:Ador
|:\
"Am"ABcA "G"BAGB | "Am"ABAG E2{D}EG |\
[1,3 A2{G}AB c2d2 | e3f edcB :|\
[2,4 cBAc "G"BAG2 | "Am"A4 {B}A4 :|

%%sep 1 1 500

